X: 392
T: Mrs Peterkin of Grange Hall's Reel
C: by Wm Christie
R: reel
B: William Christie's "A Collection of Strathspeys, Reels, Hornpipes, Waltzes, &c."
S: https://digital.nls.uk/special-collections-of-printed-music/archive/120545033
Z: 2022 John Chambers <jc:trillian.mit.edu>
M: C|
L: 1/8
K: F
%%slurgraces yes
%%graceslurs yes
% = = = = = = = = = =
V: 1 staves=2
B |\
{AB}c2(.A.F) GECB | AcBd c_edB | {AB}c2(.A.F) GECc | BDG(E {E}F2)F :| c | {fg}a2.c.a {ga}b2.e.g | (fa)(gb) (ab)(ga) |
{fg}a2.c.a{ga}b2.e.g | acge f2Tf>g || {fg}a2.c.a {ga}b2.e.g | (fa).g.b (ab).g.a | (fg) (ef) (de) (cd) | BDGE {E}F2F |]
% = = = = = = = = = =
% Voice 2 preserves the staff layout in the book.
V: 2 clef=bass middle=d
z |\
f2F2 c2e2 | f2B2 A2B2 | F2f2 c2A2 | B2c2 F2F :| z | f2a2 c'2c2 | f2e2 f2c2 |
f2a2 c'2c2 | f2c2 F2F2 || f2a2 c'2c2 | f2e2 f2c2 | d2c2 B2A2 | B2c2 F2F |]
% = = = = = = = = = =
